X:0088
M:6/8
L:1/8
Q:3/8=120
K:D
ded dAF|GEA ADE|FGA Bcd|efd c2A|
ded dAF|GEA FDE|FGA Bcd|ecA d3||
efd ecA|fdB ecA|e2f gfe|dcB A2F|

